X:195
T: Travers'
S: "Play 50 Reels" (Armagh Pipers' Club)
Z: B.Black
N: variant to mm 1 & 5: dBBA B2 GB
L: 1/8
M: 4/4
R: reel
K: G
ge | dG B2 B2 GB | dBGB AGED | GABd gabg | egdB A2 ge |
dG B2 B2 GB | dBGB AGED | GABd gabg | gedB G2 ||
GA | Bd d2 edBd | edgd edgd | Bdde gaba | gedB A2 GA |
Bd d2 edBd | edgd edgd | Bdde gaba | gedB G2 ||
